Yaru++/mimetypes/16/application-x-msi.svg

<svg height="16" width="16" xmlns="http://www.w3.org/2000/svg">
  <path d="m7.999998-.00001872-3.8260869 3.82609062 3.8260869 3.8260907 3.826091-3.8260907zm4.173915 4.17393762-3.8260869 3.8260907 3.8260869 3.8260904 3.826087-3.8260904zm-8.3478263 0-3.8260867 3.8260907 3.8260867 3.8260904 3.8260869-3.8260904zm4.1739113 4.1739-3.8260869 3.8260901 3.8260869 3.826091 3.826091-3.826091z" fill="#808080"/>
</svg>

<svg xmlns="http://www.w3.org/2000/svg" width="16" height="16" version="1.1">
 <path style="fill:#808080" d="M 7.999998,-1.872e-5 4.1739111,3.8260719 7.999998,7.6521626 11.826089,3.8260719 Z M 12.173913,4.1739189 8.3478261,8.0000096 12.173913,11.8261 16,8.0000096 Z m -8.3478263,0 L 0,8.0000096 3.8260867,11.8261 7.6521736,8.0000096 Z M 7.999998,8.3478189 4.1739111,12.173909 7.999998,16 11.826089,12.173909 Z"/>
</svg>
